gama.ui.shared/icons_svg/light/toolbar/view.pause.svg

<?xml version="1.0" encoding="UTF-8" standalone="no"?>
<!DOCTYPE svg PUBLIC "-//W3C//DTD SVG 1.1//EN" "http://www.w3.org/Graphics/SVG/1.1/DTD/svg11.dtd">
<svg xmlns="http://www.w3.org/2000/svg" xmlns:dc="http://purl.org/dc/elements/1.1/" version="1.1" xmlns:xl="http://www.w3.org/1999/xlink" viewBox="-727.6821 -2878.9773 24.75 24.75" width="24.75" height="24.75">
  <defs/>
  <g id="SOURCES" stroke-dasharray="none" stroke-opacity="1" stroke="none" fill="none" fill-opacity="1">
    <title>SOURCES</title>
    <g id="SOURCES_Light">
      <title>Light</title>
      <g id="Group_12443">
        <g id="Graphic_12446">
          <circle cx="-715.3071" cy="-2866.6023" r="8.00000702080164" fill="#666"/>
          <circle cx="-715.3071" cy="-2866.6023" r="8.00000702080164" stroke="black" stroke-linecap="round" stroke-linejoin="round" stroke-width="0"/>
        </g>
        <g id="Graphic_12445"/>
        <g id="Graphic_12444">
          <circle cx="-715.3071" cy="-2866.6023" r="8.00000702080164" fill="white"/>
          <circle cx="-715.3071" cy="-2866.6023" r="8.00000702080164" stroke="black" stroke-linecap="round" stroke-linejoin="round" stroke-width="0"/>
        </g>
      </g>
      <g id="Group_12441">
        <title>pause-alt</title>
        <g id="Graphic_12442">
          <path d="M -715.3071 -2858.6023 C -719.7231 -2858.6023 -723.3071 -2862.1863 -723.3071 -2866.6023 C -723.3071 -2871.0183 -719.7231 -2874.6023 -715.3071 -2874.6023 C -710.8911 -2874.6023 -707.3071 -2871.0183 -707.3071 -2866.6023 C -707.3071 -2862.1863 -710.8911 -2858.6023 -715.3071 -2858.6023 Z M -715.3071 -2859.4023 C -711.3311 -2859.4023 -708.1071 -2862.6263 -708.1071 -2866.6023 C -708.1071 -2870.5783 -711.3311 -2873.8023 -715.3071 -2873.8023 C -719.2831 -2873.8023 -722.5071 -2870.5783 -722.5071 -2866.6023 C -722.5071 -2862.6263 -719.2831 -2859.4023 -715.3071 -2859.4023 Z M -717.7071 -2870.6023 C -716.8271 -2870.6023 -716.1071 -2869.8823 -716.1071 -2869.0023 L -716.1071 -2864.2023 C -716.1071 -2863.3223 -716.8271 -2862.6023 -717.7071 -2862.6023 C -718.5871 -2862.6023 -719.3071 -2863.3223 -719.3071 -2864.2023 L -719.3071 -2869.0023 C -719.3071 -2869.8823 -718.5871 -2870.6023 -717.7071 -2870.6023 Z M -717.7071 -2869.8023 C -718.1471 -2869.8023 -718.5071 -2869.4423 -718.5071 -2869.0023 L -718.5071 -2864.2023 C -718.5071 -2863.7623 -718.1471 -2863.4023 -717.7071 -2863.4023 C -717.2671 -2863.4023 -716.9071 -2863.7623 -716.9071 -2864.2023 L -716.9071 -2869.0023 C -716.9071 -2869.4423 -717.2671 -2869.8023 -717.7071 -2869.8023 Z M -712.9071 -2870.6023 C -712.0271 -2870.6023 -711.3071 -2869.8823 -711.3071 -2869.0023 L -711.3071 -2864.2023 C -711.3071 -2863.3223 -712.0271 -2862.6023 -712.9071 -2862.6023 C -713.7871 -2862.6023 -714.5071 -2863.3223 -714.5071 -2864.2023 L -714.5071 -2869.0023 C -714.5071 -2869.8823 -713.7871 -2870.6023 -712.9071 -2870.6023 Z M -712.9071 -2869.8023 C -713.3471 -2869.8023 -713.7071 -2869.4423 -713.7071 -2869.0023 L -713.7071 -2864.2023 C -713.7071 -2863.7623 -713.3471 -2863.4023 -712.9071 -2863.4023 C -712.4671 -2863.4023 -712.1071 -2863.7623 -712.1071 -2864.2023 L -712.1071 -2869.0023 C -712.1071 -2869.4423 -712.4671 -2869.8023 -712.9071 -2869.8023 Z" fill="#5c76a1"/>
        </g>
      </g>
    </g>
  </g>
</svg>

<svg height="24.75" viewBox="-727.682 -2878.977 24.75 24.75" width="24.75" xmlns="http://www.w3.org/2000/svg"><g fill="none"><circle cx="-715.307" cy="-2866.602" fill="#666" r="8"/><circle cx="-715.307" cy="-2866.602" r="8"/><circle cx="-715.307" cy="-2866.602" fill="#fff" r="8"/><circle cx="-715.307" cy="-2866.602" r="8"/><path d="m-715.3071-2858.6023c-4.416 0-8-3.584-8-8s3.584-8 8-8 8 3.584 8 8-3.584 8-8 8zm0-.8c3.976 0 7.2-3.224 7.2-7.2s-3.224-7.2-7.2-7.2-7.2 3.224-7.2 7.2 3.224 7.2 7.2 7.2zm-2.4-11.2c.88 0 1.6.72 1.6 1.6v4.8c0 .88-.72 1.6-1.6 1.6s-1.6-.72-1.6-1.6v-4.8c0-.88.72-1.6 1.6-1.6zm0 .8c-.44 0-.8.36-.8.8v4.8c0 .44.36.8.8.8s.8-.36.8-.8v-4.8c0-.44-.36-.8-.8-.8zm4.8-.8c.88 0 1.6.72 1.6 1.6v4.8c0 .88-.72 1.6-1.6 1.6s-1.6-.72-1.6-1.6v-4.8c0-.88.72-1.6 1.6-1.6zm0 .8c-.44 0-.8.36-.8.8v4.8c0 .44.36.8.8.8s.8-.36.8-.8v-4.8c0-.44-.36-.8-.8-.8z" fill="#5c76a1"/></g></svg>
